usr/share/icons/biglinux-icons-material-dark/22/actions/realization.svg

<svg xmlns="http://www.w3.org/2000/svg" viewBox="0 0 22 22">
  <defs id="defs3051">
    <style type="text/css" id="current-color-scheme">
      .ColorScheme-Text {
        color:#dedede;
      }
      </style>
  </defs>
 <path 
     style="fill:currentColor;fill-opacity:1;stroke:none" 
     d="M 10.5 3 L 7 10 L 8 10 L 8.1171875 10 L 10 10 L 10 13 L 11 13 L 11 10 L 12.882812 10 L 13 10 L 14 10 L 10.5 3 z M 10.5 5.2363281 L 12.382812 9 L 8.6171875 9 L 10.5 5.2363281 z M 10 14 L 10 16 L 11 16 L 11 14 L 10 14 z M 10 17 L 10 19 L 11 19 L 11 17 L 10 17 z "
     class="ColorScheme-Text"
     />
 <path 
     style="fill:currentColor;fill-opacity:0.5;stroke:none" 
     d="M 10.5 5.2363281 L 8.1171875 10 L 12.882812 10 L 10.5 5.2363281 z "
     class="ColorScheme-Text"
     />
</svg>

<svg xmlns="http://www.w3.org/2000/svg" viewBox="0 0 22 22">
<defs id="defs3051">
<style id="current-color-scheme" type="text/css">
.ColorScheme-Text{color:#dedede}
</style>
</defs>
<path d="M10.5 3 7 10h3v3h1v-3h3zm0 2.236L12.383 9H8.617zM10 14v2h1v-2zm0 3v2h1v-2z" class="ColorScheme-Text" style="fill:currentColor;fill-opacity:1;stroke:none"/>
<path d="M10.5 5.236 8.117 10h4.766z" class="ColorScheme-Text" style="fill:currentColor;fill-opacity:.5;stroke:none"/>
</svg>
